X:117
T: Herzens Schluessel
N: A0135A
O: Europa, Mitteleuropa, Deutschland
N: 68 Lieder. Nuernberg c. 1542 No. 21.
R: Romanze, Ballade, Lied
M: 4/2
L: 1/2
K: F
F2FF | AAcc | A
ccc | BAG2 | F4
F2FF | AAcc | A
ccc | BAG2 | F3
c | cccB | A2G2 | z2
A2 | B2Bc2A | G4 | z2
c2 | dccA | F2cA2
c | ccBAG2 | F4

